X: 3874
T: Black Rogue, The
R: jig
M: 6/8
K: Amixolydian
|:cAA BGG|cAA A2 d|cAA BGG|AFD D2 d|
cAA BGG|cAA A2 F|G2 A d2 B|AFD D2 d:|
|:~f3 gfg|afd d3|~f3 gfg|a3 a3|
agf gfe|fed e2 d|cAA BGG|AFD D2 d:|

